src/images/icons/message.svg

<svg fill="none" height="41" viewBox="0 0 48 41" width="48" xmlns="http://www.w3.org/2000/svg"><g fill="#10182e"><path d="m40.9286.00015155h-33.90337c-1.8632 0-3.6501.74015645-4.96759 2.05764845-1.317484 1.31748-2.05764 3.10438-2.05764 4.96759v19.87601c0 .9225.181713 1.8361.534764 2.6884.353051.8524.870526 1.6268 1.522876 2.2792.65236.6523 1.42681 1.1698 2.27915 1.5228.85234.3531 1.76588.5348 2.68844.5348h25.27467l5.1103 6.0447c.1549.1821.3476.328.5649.4276.2172.0997.4536.1506.6925.1492.1959-.0007.3905-.0319.5768-.0923.3259-.1116.6093-.3211.8116-.5998.2024-.2787.3137-.6131.3189-.9575v-4.9719h.6114c1.8612-.003 3.6451-.7445 4.9601-2.0617s2.0536-3.1023 2.0536-4.9635v-19.87601c0-.92647-.1832-1.84378-.5391-2.69915-.356-.85536-.8776-1.63187-1.5348-2.28483-.6573-.65296-1.4372-1.169471-2.2949-1.519796-.8576-.350326-1.7761-.52754759-2.7026-.52146245zm-33.90337 3.31073845h33.90337c.9852 0 1.93.39135 2.6266 1.08795.6966.69661 1.0879 1.6414 1.0879 2.62655v19.87601c0 .9851-.3913 1.9299-1.0879 2.6265s-1.6414 1.088-2.6266 1.088h-2.3071c-.2167.0045-.4303.0516-.6287.1387s-.3778.2124-.5277.3688c-.15.1564-.2677.3408-.3464.5427s-.1168.4173-.1122.634v2.1225l-2.6994-3.1838c-.1542-.1835-.3466-.3313-.5638-.4329-.2171-.1016-.4538-.1546-.6936-.1554h-26.02447c-.98514 0-1.92994-.3914-2.62654-1.088s-1.08795-1.6414-1.08795-2.6265v-19.91061c0-.98515.39135-1.92994 1.08795-2.62655.6966-.6966 1.6414-1.08795 2.62654-1.08795z"/><path d="m16.6802 20.1646c.58.0022 1.1477-.1677 1.631-.4882.4834-.3206.8607-.7774 1.0843-1.3126.2235-.5352.2832-1.1247.1714-1.6938-.1117-.5692-.3899-1.0923-.7992-1.5033-.4093-.4109-.9313-.6911-1.5-.8051s-1.1585-.0567-1.6945.1648c-.5361.2214-.9944.5969-1.3169 1.079-.3224.4821-.4946 1.0491-.4946 1.6291 0 .7751.3071 1.5186.8541 2.0678s1.2893.8592 2.0644.8623z"/><path d="m23.9713 20.1646c.58.0022 1.1476-.1677 1.631-.4882.4833-.3206.8607-.7774 1.0842-1.3126s.2832-1.1247.1715-1.6938c-.1118-.5692-.3899-1.0923-.7992-1.5033-.4094-.4109-.9314-.6911-1.5001-.8051s-1.1584-.0567-1.6945.1648c-.5361.2214-.9944.5969-1.3168 1.079-.3225.4821-.4947 1.0491-.4947 1.6291 0 .7751.3071 1.5186.8541 2.0678s1.2894.8592 2.0645.8623z"/><path d="m31.7113 20.1645c.5818.0115 1.1539-.1506 1.6432-.4655.4894-.3149.8739-.7685 1.1046-1.3027.2306-.5343.2969-1.1252.1905-1.6973-.1065-.5721-.3809-1.0996-.7883-1.5152-.4074-.4155-.9293-.7004-1.4992-.8182s-1.162-.0632-1.7007.1567c-.5388.22-.9999.5954-1.3244 1.0784-.3246.4831-.498 1.0518-.4981 1.6337-.0002.7672.3006 1.5039.8377 2.0518.5371.5478 1.2676.8632 2.0347.8783z"/></g></svg>

<svg width="48" height="41" viewBox="0 0 48 41" fill="none" xmlns="http://www.w3.org/2000/svg">
<path d="M40.9286 0.000151551H7.02523C5.16203 0.000151551 3.37513 0.740308 2.05764 2.0578C0.740156 3.37528 0 5.16218 0 7.02539L0 26.9014C0 27.8239 0.181713 28.7375 0.534764 29.5898C0.887815 30.4422 1.40529 31.2166 2.05764 31.869C2.71 32.5213 3.48445 33.0388 4.33679 33.3918C5.18913 33.7449 6.10267 33.9266 7.02523 33.9266H32.2999L37.4102 39.9713C37.5651 40.1534 37.7578 40.2993 37.9751 40.3989C38.1923 40.4986 38.4287 40.5495 38.6676 40.5481C38.8635 40.5474 39.0581 40.5162 39.2444 40.4558C39.5703 40.3442 39.8537 40.1347 40.056 39.856C40.2584 39.5773 40.3697 39.2429 40.3749 38.8985V33.9266H40.9863C42.8475 33.9236 44.6314 33.1821 45.9464 31.8649C47.2614 30.5477 48 28.7626 48 26.9014V7.02539C48 6.09892 47.8168 5.18161 47.4609 4.32624C47.1049 3.47088 46.5833 2.69437 45.9261 2.04141C45.2688 1.38845 44.4889 0.871939 43.6312 0.521614C42.7736 0.171288 41.8551 -0.00593359 40.9286 0.000151551ZM7.02523 3.31089H40.9286C41.9138 3.31089 42.8586 3.70224 43.5552 4.39884C44.2518 5.09545 44.6431 6.04024 44.6431 7.02539V26.9014C44.6431 27.8865 44.2518 28.8313 43.5552 29.5279C42.8586 30.2245 41.9138 30.6159 40.9286 30.6159H38.6215C38.4048 30.6204 38.1912 30.6675 37.9928 30.7546C37.7944 30.8417 37.615 30.967 37.4651 31.1234C37.3151 31.2798 37.1974 31.4642 37.1187 31.6661C37.04 31.868 37.0019 32.0834 37.0065 32.3001V34.4226L34.3071 31.2388C34.1529 31.0553 33.9605 30.9075 33.7433 30.8059C33.5262 30.7043 33.2895 30.6513 33.0497 30.6505H7.02523C6.04009 30.6505 5.09529 30.2591 4.39869 29.5625C3.70209 28.8659 3.31074 27.9211 3.31074 26.936V7.02539C3.31074 6.04024 3.70209 5.09545 4.39869 4.39884C5.09529 3.70224 6.04009 3.31089 7.02523 3.31089Z" fill="#10182E"/>
<path d="M16.6802 20.1646C17.2602 20.1668 17.8279 19.9969 18.3112 19.6764C18.7946 19.3558 19.1719 18.899 19.3955 18.3638C19.619 17.8286 19.6787 17.2391 19.5669 16.67C19.4552 16.1008 19.177 15.5777 18.7677 15.1667C18.3584 14.7558 17.8364 14.4756 17.2677 14.3616C16.699 14.2476 16.1092 14.3049 15.5732 14.5264C15.0371 14.7478 14.5788 15.1233 14.2563 15.6054C13.9339 16.0875 13.7617 16.6545 13.7617 17.2345C13.7617 18.0096 14.0688 18.7531 14.6158 19.3023C15.1628 19.8515 15.9051 20.1615 16.6802 20.1646Z" fill="#10182E"/>
<path d="M23.9713 20.1646C24.5513 20.1668 25.1189 19.9969 25.6023 19.6764C26.0856 19.3558 26.463 18.899 26.6865 18.3638C26.91 17.8286 26.9697 17.2391 26.858 16.67C26.7462 16.1008 26.4681 15.5777 26.0588 15.1667C25.6494 14.7558 25.1274 14.4756 24.5587 14.3616C23.99 14.2476 23.4003 14.3049 22.8642 14.5264C22.3281 14.7478 21.8698 15.1233 21.5474 15.6054C21.2249 16.0875 21.0527 16.6545 21.0527 17.2345C21.0527 18.0096 21.3598 18.7531 21.9068 19.3023C22.4538 19.8515 23.1962 20.1615 23.9713 20.1646Z" fill="#10182E"/>
<path d="M31.7113 20.1645C32.2931 20.176 32.8652 20.0139 33.3545 19.699C33.8439 19.3841 34.2284 18.9305 34.4591 18.3963C34.6897 17.862 34.756 17.2711 34.6496 16.699C34.5431 16.1269 34.2687 15.5994 33.8613 15.1838C33.4539 14.7683 32.932 14.4834 32.3621 14.3656C31.7922 14.2478 31.2001 14.3024 30.6614 14.5223C30.1226 14.7423 29.6615 15.1177 29.337 15.6007C29.0124 16.0838 28.839 16.6525 28.8389 17.2344C28.8387 18.0016 29.1395 18.7383 29.6766 19.2862C30.2137 19.834 30.9442 20.1494 31.7113 20.1645Z" fill="#10182E"/>
</svg>
